!!!!SEGMENT: pl-sa--230-a-vi-34--006_luna-georgius--litania-mater-amabilis.krn
!!!cenid: 17xx:500
!!!COM: Luna, Georgius
!!!COM-rismID:
!!!CDT:
!!!CNT:
!!!OPR: Litania
!!!OTL: Mater amabilis
!!!OMV: 006
!!!PDT:
!!!AGN: Sacred; Mass
!!!SMS-siglum: PL-SA
!!!SMS-shelfmark: 230/A VI 34
!!!SMS-shelfwork: 001-006 M
!!!SMS-variant: Violino Imo: PL-SA-230/A VI 34: 9
!!!SMS-altvar: Violino Imo: PL-SA/A VI 34: 30
!!!NIFC-rismSourceID: 1001070084
!!!NIFC-islandoraID:
!!!URL-pdf-islandora:
!!!URL-scan: https://bc.bdsandomierz.pl/dlibra/publication/1606/edition/1574/content @EN{Scan on Cyfrowa Biblioteka Diecezjalna w Sandomierzu} @PL{Skany w portalu Cyfrowa Biblioteka Diecezjalna w Sandomierzu}
!!!ONB-nifc: UWAGA: części Litanii: Simphonia, Kirie, Pater de caelis, Sancta Maria, Mater Christi, Mater amabilis, Virgo prudentissima, Speculum, Rosa mistica, Salus infirmorum, Regina angelorum, Agnus Dei
!!!AIN: 3 empty 1 tenor 2 violn 1 vox
!!!key:
**kern	**kern	**kern	**kern	**text	**kern	**text	**kern	**kern
*part7	*part6	*part5	*part4	*part4	*part3	*part3	*part2	*part1
*staff7	*staff6	*staff5	*staff4	*staff4	*staff3	*staff3	*staff2	*staff1
*Iempty	*Ivioln	*Ivioln	*Itenor	*	*Ivox	*	*Iempty	*Iempty
*I"Fundamenti	*I"Violino II	*I"Violino 1mo	*I"Tenore	*	*I"Canto	*	*I"Clarino 2do ex C	*I"Clarino 1mo
*I'Vc.	*I'Vn II	*I'Vn I	*I'T.	*	*I'C.	*	*I'C.II in F	*I'C. I
*clefF4	*clefG2	*clefG2	*clefC4	*	*clefC1	*	*clefG2	*clefG2
*	*	*	*	*	*	*	*ITrd3c5	*
*k[f#]	*k[f#]	*k[f#]	*k[f#]	*	*k[f#]	*	*k[f#]	*k[f#]
*G:	*G:	*G:	*G:	*	*G:	*	*G:	*G:
*M3/4	*M3/4	*M3/4	*M3/4	*	*M3/4	*	*M3/4	*M3/4
=1	=1	=1	=1	=1	=1	=1	=1	=1
!	!LO:SIC:o=:v:caudy z prawej strony	!LO:SIC:o=:v:caudy z prawej strony	!	!	!	!	!	!
!LO:SIC:o=:v:caudy z prawej strony	!LO:TX:b:t=Mater amabilis	!	!LO:SIC:o=:v:caudy z prawej strony	!	!LO:SIC:o=:v:caudy z prawej strony	!	!LO:TX:a:t=Tacet	!LO:TX:a:t=Tacet
4G\	8.gg\L	8.gg\L	4d\	Ma-	4b\	Ma-	2.ryy	2.ryy
.	16dd\Jk	16dd\Jk	.	.	.	.	.	.
4B\	8.b/L	8.b/L	4d\	-ter	4b\	-ter	.	.
.	16g/Jk	16g/Jk	.	.	.	.	.	.
4G\	8.dd\L	8.dd\L	4d\	a-	4b\	a-	.	.
.	16b\Jk	16gg\Jk	.	.	.	.	.	.
=2	=2	=2	=2	=2	=2	=2	=2	=2
4d\	4b\	4gg\	8d\	-ma-	8b\	-ma-	2.ryy	2.ryy
.	.	.	8d\	-bi-	8a\	-bi-	.	.
4D/	8.a\L	8.ff#\L	4d\	-lis	4a\	-lis	.	.
.	16ff#\Jk	16aa\Jk	.	.	.	.	.	.
4r	4a/	4dd\	4r	.	4r	.	.	.
!	!	!	!LO:LB:g=original	!	!	!	!	!
=3	=3	=3	=3	=3	=3	=3	=3	=3
4D\	8.aa\L	8.aa\L	4A\	o-	4cc\	o-	2.ryy	2.ryy
.	16ff#\Jk	16ff#\Jk	.	.	.	.	.	.
4F#\	8.cc\L	8.cc\L	4A\	-ra	4cc\	-ra	.	.
.	16a\Jk	16a\Jk	.	.	.	.	.	.
!	!LO:TX:a:t=P:problem=mixed beam	!LO:TX:a:t=P:problem=mixed beam	!	!	!	!	!	!
4D\	8.d/L	8.d/L	4A\	pro	4cc\	pro	.	.
.	16cc\Jk	16aa\Jk	.	.	.	.	.	.
=4	=4	=4	=4	=4	=4	=4	=4	=4
4G\	4a/	4cc\	4A/	no-	4cc\	no-	2.ryy	2.ryy
!	!LO:TX:a:t=P:problem=mixed beam	!	!	!	!	!	!	!
4GG/	8.g/L	8.b\L	4G/	-bis	4b\	-bis	.	.
.	16gg\Jk	16gg\Jk	.	.	.	.	.	.
4r	4g/	4g/	4r	.	4r	.	.	.
=5	=5	=5	=5	=5	=5	=5	=5	=5
8.GG/L	4b\	4gg\	4B\	Ma-	4dd\	Ma-	2.ryy	2.ryy
16AA/Jk	.	.	.	.	.	.	.	.
.	.	8qqgg/	.	.	.	.	.	.
*	*2\right	*2\right	*	*	*2\right	*	*	*
8.BB/L	2dd\	2ffnM\	2d\	.	2ffn\	.	.	.
16D/Jk	.	.	.	.	.	.	.	.
!LO:LB:g=original	!	!	!	!	!	!	!	!
8.BB/L	.	.	.	.	.	.	.	.
16GG/Jk	.	.	.	.	.	.	.	.
=6	=6	=6	=6	=6	=6	=6	=6	=6
8.C/L	4cc\	4ee\	4c\	-ter	4ee\	-ter	2.ryy	2.ryy
16D/Jk	.	.	.	.	.	.	.	.
8.E\L	4cc\	4ee\	4c\	a-	4ee\	a-	.	.
16G\Jk	.	.	.	.	.	.	.	.
8.E\L	4cc\	4ee\	4c\	-dmi-	4ee\	-dmi-	.	.
16C\Jk	.	.	.	.	.	.	.	.
!	!	!LO:LB:g=original	!	!	!	!	!	!
=7	=7	=7	=7	=7	=7	=7	=7	=7
8.AA/L	4cc#X\	4aa\	4c#X\	-ra-	4ee\	-ra-	2.ryy	2.ryy
16BB/Jk	.	.	.	.	.	.	.	.
.	.	8qqaa/	.	.	.	.	.	.
8.C#X/L	2ee\	2gg\	2e\	-bi-	2gg\	-bi-	.	.
16E/Jk	.	.	.	.	.	.	.	.
8.C#/L	.	.	.	.	.	.	.	.
16AA/Jk	.	.	.	.	.	.	.	.
=8	=8	=8	=8	=8	=8	=8	=8	=8
!!linebreak:original
8.D\L	4dd\	4ff#\	2d\	-lis	2ff#X\	-lis	2.ryy	2.ryy
16E\Jk	.	.	.	.	.	.	.	.
8.F#\L	4dd\	4ff#\	.	.	.	.	.	.
16A\Jk	.	.	.	.	.	.	.	.
8.F#\L	4dd\	4ff#\	4r	.	4r	.	.	.
16D\Jk	.	.	.	.	.	.	.	.
=9	=9	=9	=9	=9	=9	=9	=9	=9
4D\	8.dd\L	8.dd\L	4d\	o-	4ff#\	o-	2.ryy	2.ryy
.	16a\Jk	16ff#\Jk	.	.	.	.	.	.
4F#\	8.ff#\L	8.aa\L	4d\	-ra	4ff#\	-ra	.	.
.	16dd\Jk	16ff#\Jk	.	.	.	.	.	.
4D\	8.ff#\L	8.ddd\L	4d\	pro	4ff#\	pro	.	.
.	16ff#\Jk	16fff#\Jk	.	.	.	.	.	.
!	!	!	!	!	!LO:LB:g=original	!	!	!
=10	=10	=10	=10	=10	=10	=10	=10	=10
4A\	8.ee\L	8.ccc#X\L	4c#X\	no-	4ff#\	no-	2.ryy	2.ryy
.	16gg\Jk	16bb\Jk	.	.	.	.	.	.
4AA/	8.ff#\L	8.aa\L	2c#\	-bis	2ff#\	-bis	.	.
.	16ee\Jk	16gg\Jk	.	.	.	.	.	.
!	!LO:LB:g=original	!	!	!	!	!	!	!
4AA/	8.dd\L	8.ff#\L	.	.	.	.	.	.
.	16cc#X\Jk	16ee\Jk	.	.	.	.	.	.
=11	=11	=11	=11	=11	=11	=11	=11	=11
*	*	*	*	*ij	*	*ij	*	*
4D\	8.dd\L	8.ff#\L	4d\	o-	4ff#\	o-	2.ryy	2.ryy
.	16a\Jk	16dd\Jk	.	.	.	.	.	.
4F#\	8.ff#\L	8.aa\L	4d\	-ra	4ff#\	-ra	.	.
.	16dd\Jk	16ff#\Jk	.	.	.	.	.	.
4D\	8.ff#\L	8.ddd\L	4d\	pro	4ff#\	pro	.	.
.	16ff#\Jk	16ddd\Jk	.	.	.	.	.	.
=12	=12	=12	=12	=12	=12	=12	=12	=12
4A\	8.ee\L	8.ccc#X\L	4c#X\	no-	4ee\	no-	2.ryy	2.ryy
.	16gg\Jk	16ccc#\Jk	.	.	.	.	.	.
4AA/	8.ff#\L	8.aa\L	2c#\	-bis	2ee\	-bis	.	.
*	*	*	*	*Xij	*	*Xij	*	*
.	16ee\Jk	16gg\Jk	.	.	.	.	.	.
4AA/	8.dd\L	8.ff#\L	.	.	.	.	.	.
.	16cc#X\Jk	16ee\Jk	.	.	.	.	.	.
=13	=13	=13	=13	=13	=13	=13	=13	=13
!	!	!LO:TUP:a:problem=klamra łukowa	!	!	!	!	!	!
4D\	4dd\	12ff#\L	4d\	o-	4ff#\	pro	2.ryy	2.ryy
.	.	12ee\	.	.	.	.	.	.
.	.	12dd\J	.	.	.	.	.	.
.	.	8qqdd/	.	.	.	.	.	.
4A\	2cc#X\	2eeM\	2c#X\	-ra	2ee\	no-	.	.
4AA/	.	.	.	.	.	.	.	.
!LO:LB:g=original	!	!	!LO:LB:g=original	!	!	!	!	!
=14	=14	=14	=14	=14	=14	=14	=14	=14
8.D\L	8.dd\L	8.dd\L	4d\	bis	4ff#\	-bis	2.ryy	2.ryy
16G#X\K	16b\Jk	16ffn\K	.	.	.	.	.	.
8.G#\	8.b\L	8.ff\	4r	.	4r	.	.	.
16G#\Jk	16b\Jk	16ff\Jk	.	.	.	.	.	.
8.G#\L	8.b\L	8.ff\L	4r	.	4r	.	.	.
16G#\Jk	16b\Jk	16ff\Jk	.	.	.	.	.	.
=15	=15	=15	=15	=15	=15	=15	=15	=15
!!pagebreak:original
!	!	!	!LO:N:vis=0	!	!LO:N:vis=0	!	!	!
8.A\L	8.cc#X\L	8.ee\L	1.r	.	1.r	.	2.ryy	2.ryy
16G#X\Jk	16cc#\Jk	16ff#\Jk	.	.	.	.	.	.
8.G#\L	8.b\L	8.ff#\L	.	.	.	.	.	.
16G#\K	16b\Jk	16ff#\Jk	.	.	.	.	.	.
8.G#\	8.b\L	8.ff#\L	.	.	.	.	.	.
16G#\Jk	16b\Jk	16ff#\Jk	.	.	.	.	.	.
!	!	!LO:LB:g=original	!	!	!	!	!	!
=16	=16	=16	=16	=16	=16	=16	=16	=16
4A\	8.cc#X\L	8.ee\L	.	.	.	.	2.ryy	2.ryy
.	16a\Jk	16cc#X\Jk	.	.	.	.	.	.
4AA/	8.ee\L	8.gg\L	.	.	.	.	.	.
.	16dd\Jk	16ff#\Jk	.	.	.	.	.	.
4AA/	8.ee\L	8.gg\L	.	.	.	.	.	.
.	16cc#\Jk	16ee\Jk	.	.	.	.	.	.
=17	=17	=17	=17	=17	=17	=17	=17	=17
4D\	4dd\	8.ff#\L	2.r	.	2.r	.	2.ryy	2.ryy
.	.	16dd\Jk	.	.	.	.	.	.
4A\	4cc#X\	4a/	.	.	.	.	.	.
4AA/	4cc#\	4eeM\	.	.	.	.	.	.
=18	=18	=18	=18	=18	=18	=18	=18	=18
4D\	8.dd\L	8.dd\L	4d\	Ma-	4ff#\	Ma-	2.ryy	2.ryy
.	16a\Jk	16a\Jk	.	.	.	.	.	.
4F#\	8.f#/L	8.f#/L	4d\	-ter	4ff#\	-ter	.	.
.	16d/Jk	16d/Jk	.	.	.	.	.	.
!	!LO:LB:g=original	!	!	!	!	!	!	!
4D\	8.a/L	8.a/L	8d\	Cre-	8ff#\	Cre-	.	.
.	.	.	8d\	-a-	8ff#\	-a-	.	.
.	16f#/Jk	16dd/Jk	.	.	.	.	.	.
=19	=19	=19	=19	=19	=19	=19	=19	=19
4A\	4f#/	4dd\	4d\	-to-	4ff#\	-to-	2.ryy	2.ryy
4AA/	8.e/L	8.cc#X\L	4c#X\	-ris	4ee\	-ris	.	.
.	16cc#X/Jk	16ee\Jk	.	.	.	.	.	.
4r	4e/	4a/	4r	.	4r	.	.	.
=20	=20	=20	=20	=20	=20	=20	=20	=20
4AA/	8.ee\L	8.ee\L	4G/	o-	4ee\	o-	2.ryy	2.ryy
.	16cc\Jk	16cc#X\Jk	.	.	.	.	.	.
4C#X/	8.a/L	8.a/L	4G/	-ra	4ee\	-ra	.	.
.	16e/Jk	16e/Jk	.	.	.	.	.	.
!	!	!LO:TX:a:t=P:problem=mixed beam	!	!	!	!	!	!
4AA/	8.A/L	8.A/L	4G/	pro	4ee\	pro	.	.
.	16g/Jk	16ee\Jk	.	.	.	.	.	.
=21	=21	=21	=21	=21	=21	=21	=21	=21
4D\	4e/	4g/	4G/	no-	4ee\	no-	2.ryy	2.ryy
4D\	8.d/L	8.f#/L	4F#/	-bis	4dd\	-bis	.	.
.	16f#/Jk	16a/Jk	.	.	.	.	.	.
4r	4d/	4d/	4r	.	4r	.	.	.
=22	=22	=22	=22	=22	=22	=22	=22	=22
!!linebreak:original
*	*	*	*	*ij	*	*ij	*	*
4D\	8.A/L	8.d/L	4A\	o-	4ccn\	o-	2.ryy	2.ryy
.	16d/Jk	16f#/Jk	.	.	.	.	.	.
4D\	8.f#/L	8.a/L	4A\	-ra	4cc\	-ra	.	.
.	16a/Jk	16ccn/Jk	.	.	.	.	.	.
4D\	8.ccn\L	8.ff#\L	4A\	pro	4cc\	pro	.	.
.	16ff#\Jk	16aa\Jk	.	.	.	.	.	.
!	!	!	!	!	!LO:LB:g=original	!	!	!
=23	=23	=23	=23	=23	=23	=23	=23	=23
4D\	8.a\L	8.cc\L	2A/	no-	2cc\	no-	2.ryy	2.ryy
.	16ff#\Jk	16aa\Jk	.	.	.	.	.	.
!	!	!LO:TX:a:t=P:problem=mixed beam	!	!	!	!	!	!
4F#\	8.d/L	8.d/L	.	.	.	.	.	.
.	16a/Jk	16cc\Jk	.	.	.	.	.	.
4G\	4g/	4b\	4G/	-bis	4b\	-bis	.	.
*	*	*	*	*Xij	*	*Xij	*	*
=24	=24	=24	=24	=24	=24	=24	=24	=24
4G\	8.gg\L	8.gg\L	4d\	Ma-	4b\	Ma-	2.ryy	2.ryy
.	16dd\Jk	16dd\Jk	.	.	.	.	.	.
4B\	8.b\L	8.b/L	4d\	-ter	4b\	-ter	.	.
.	16g\Jk	16g/Jk	.	.	.	.	.	.
!	!	!LO:LB:g=original	!	!	!	!	!	!
4G\	8.dd\L	8.dd\L	8d\	Sal-	8b\	Sal-	.	.
.	.	.	8d\	-va-	8b\	-va-	.	.
.	16b\Jk	16gg\Jk	.	.	.	.	.	.
=25	=25	=25	=25	=25	=25	=25	=25	=25
4d\	4b\	4gg\	4d\	-to-	4b\	-to-	2.ryy	2.ryy
4D/	8.a\L	8.ff#\L	4d\	-ris	4a\	-ris	.	.
.	16ff#\Jk	16aa\Jk	.	.	.	.	.	.
4r	4a/	4dd\	4r	.	4r	.	.	.
!LO:LB:g=original	!	!	!LO:LB:g=original	!	!	!	!	!
=26	=26	=26	=26	=26	=26	=26	=26	=26
4D\	8.aa\L	8.aa\L	4A\	o-	4cc\	o-	2.ryy	2.ryy
.	16ff#\Jk	16ff#\Jk	.	.	.	.	.	.
4F#\	8.cc\L	8.cc\L	4A\	-ra	4cc\	-ra	.	.
.	16a\Jk	16a\Jk	.	.	.	.	.	.
!	!LO:LB:g=original	!	!	!	!	!	!	!
!	!LO:TX:a:t=P:problem=mixed beam	!LO:TX:a:t=P:problem=mixed beam	!	!	!	!	!	!
4D\	8.d/L	8.d/L	4A\	pro	4cc\	pro	.	.
.	16cc\Jk	16aa\Jk	.	.	.	.	.	.
=27	=27	=27	=27	=27	=27	=27	=27	=27
4G\	4a/	4cc\	4A/	no-	4cc\	no-	2.ryy	2.ryy
!	!LO:TX:a:t=P:problem=mixed beam	!	!	!	!	!	!	!
4GG/	8.g/L	8.b\L	2G/	-bis	2b\	-bis	.	.
.	16gg\Jk	16gg\Jk	.	.	.	.	.	.
4r	4g/	4g/	.	.	.	.	.	.
=28	=28	=28	=28	=28	=28	=28	=28	=28
8.GG/L	4b\	4gg\	4B\	o-	4dd\	o-	2.ryy	2.ryy
16AA/Jk	.	.	.	.	.	.	.	.
.	.	8qqgg/	.	.	.	.	.	.
8.BB/L	2dd\	2ffnM\	2d\	.	2ffn\	-ra	.	.
16D/Jk	.	.	.	.	.	.	.	.
8.BB/L	.	.	.	.	.	.	.	.
16GG/Jk	.	.	.	.	.	.	.	.
=29	=29	=29	=29	=29	=29	=29	=29	=29
!!pagebreak:original
8.C\L	4cc\	4ee\	2.c\	-ra	2.ee\	o-	2.ryy	2.ryy
16D\Jk	.	.	.	.	.	.	.	.
8.E\L	4cc\	4ee\	.	.	.	.	.	.
16G\Jk	.	.	.	.	.	.	.	.
8.E\L	4cc\	4ee\	.	.	.	.	.	.
16C\Jk	.	.	.	.	.	.	.	.
=30	=30	=30	=30	=30	=30	=30	=30	=30
8.AA/L	4cc#X\	4aa\	4c#X\	o-	4ee\	.	2.ryy	2.ryy
16BB/Jk	.	.	.	.	.	.	.	.
8.C#X/L	2ee\	2aaT\	2e\	.	2gg\	.	.	.
16E/Jk	.	.	.	.	.	.	.	.
8.C#/L	.	.	.	.	.	.	.	.
16AA/Jk	.	.	.	.	.	.	.	.
=31	=31	=31	=31	=31	=31	=31	=31	=31
8.D\L	4dd\	4ff#\	2.d\	-ra	2.ff#X\	.	2.ryy	2.ryy
16E\Jk	.	.	.	.	.	.	.	.
8.F#\L	4dd\	4ff#\	.	.	.	.	.	.
16A\Jk	.	.	.	.	.	.	.	.
8.F#\L	4dd\	4ff#\	.	.	.	.	.	.
16D\Jk	.	.	.	.	.	.	.	.
=32	=32	=32	=32	=32	=32	=32	=32	=32
*	*	*	*	*ij	*	*	*	*
8.D\L	4ff#\	4aa\	4cn\	o-	4aa\	.	2.ryy	2.ryy
16E\Jk	.	.	.	.	.	.	.	.
8.F#\L	2aM/	2ccM\	2A/	.	2cc\	.	.	.
16A\Jk	.	.	.	.	.	.	.	.
8.F#\L	.	.	.	.	.	.	.	.
16D\Jk	.	.	.	.	.	.	.	.
=33	=33	=33	=33	=33	=33	=33	=33	=33
8.GG/L	4g/	4b\	2.G/	-ra	2.b\	.	2.ryy	2.ryy
*	*	*	*	*Xij	*	*	*	*
16AA/Jk	.	.	.	.	.	.	.	.
8.BB/L	4g/	4b\	.	.	.	.	.	.
16D/Jk	.	.	.	.	.	.	.	.
8.BB/L	4g/	4b\	.	.	.	.	.	.
16GG/Jk	.	.	.	.	.	.	.	.
!LO:PB:g=original	!	!	!	!	!	!	!	!
=34	=34	=34	=34	=34	=34	=34	=34	=34
4G\	8.d/L	8.g/L	4d\	o-	4b\	.	2.ryy	2.ryy
.	16g/Jk	16cc/Jk	.	.	.	.	.	.
4B\	8.b\L	8.dd\L	4d\	-ra	4b\	-ra	.	.
.	16g\Jk	16b\Jk	.	.	.	.	.	.
4G\	8.b\L	8.gg\L	4d\	pro	4b\	pro	.	.
.	16b\Jk	16gg\Jk	.	.	.	.	.	.
!	!	!	!	!	!LO:LB:g=original	!	!	!
=35	=35	=35	=35	=35	=35	=35	=35	=35
4d\	8.a\L	8.ff#\L	4d\	no-	4a\	no-	2.ryy	2.ryy
.	16cc\Jk	16ee\K	.	.	.	.	.	.
4D/	8.b\L	8.dd\	2d\	-bis	2aM\	-bis	.	.
.	16a\Jk	16cc\K	.	.	.	.	.	.
4D/	8.g\L	8.b\	.	.	.	.	.	.
.	16f#\Jk	16a\Jk	.	.	.	.	.	.
!	!	!LO:LB:g=original	!	!	!	!	!	!
=36	=36	=36	=36	=36	=36	=36	=36	=36
!!linebreak:original
*	*	*	*	*ij	*	*ij	*	*
4G\	8.g/L	8.b\L	4d\	o-	4b\	o-	2.ryy	2.ryy
.	16d/Jk	16g\Jk	.	.	.	.	.	.
4B\	8.b\L	8.dd\L	4d\	-ra	4b\	-ra	.	.
.	16g\Jk	16b\Jk	.	.	.	.	.	.
4G\	8.b\L	8.gg\L	4d\	pro	4b\	pro	.	.
.	16b\Jk	16gg\Jk	.	.	.	.	.	.
!	!LO:LB:g=original	!	!	!	!	!	!	!
=37	=37	=37	=37	=37	=37	=37	=37	=37
4d\	8.a\L	8.ff#\L	4d\	no-	4a\	no-	2.ryy	2.ryy
.	16cc\Jk	16ee\K	.	.	.	.	.	.
4D\	8.b\L	8.dd\	2d\	-bis	2a\	-bis	.	.
*	*	*	*	*Xij	*	*Xij	*	*
.	16a\Jk	16cc\Jk	.	.	.	.	.	.
4D\	8.g/L	8.b/L	.	.	.	.	.	.
.	16f#/Jk	16a/Jk	.	.	.	.	.	.
!	!	!	!LO:LB:g=original	!	!	!	!	!
=38	=38	=38	=38	=38	=38	=38	=38	=38
!	!	!LO:TUP:a:problem=klamra łukowa	!	!	!	!	!	!
4G\	4g/	12b/L	4d\	pro	4b\	pro	2.ryy	2.ryy
.	.	12a/	.	.	.	.	.	.
.	.	12g/J	.	.	.	.	.	.
.	.	8qqg/	.	.	.	.	.	.
4d\	2f#m/	2aM/	2d\	no-	2a\	no-	.	.
4D/	.	.	.	.	.	.	.	.
=39	=39	=39	=39	=39	=39	=39	=39	=39
8.GG/L	8.g/L	8.g/L	4d\	-bis	4b\	-bis	2.ryy	2.ryy
16C#X/Jk	16e/K	16b-X/K	.	.	.	.	.	.
8.C#/L	8.e/	8.b-/	4r	.	4r	.	.	.
16C#/Jk	16e/Jk	16b-/Jk	.	.	.	.	.	.
8.C#/L	8.e/L	8.b-\L	4r	.	4r	.	.	.
16C#/Jk	16e/Jk	16b-\Jk	.	.	.	.	.	.
=40	=40	=40	=40	=40	=40	=40	=40	=40
!	!	!	!LO:N:vis=00	!	!LO:N:vis=00	!	!	!
8.D/L	8.f#/L	8.a/L	0.r	.	0.r	.	2.ryy	2.ryy
16C/Jk	16e/K	16b-X/K	.	.	.	.	.	.
8.C/L	8.e/	8.b-/	.	.	.	.	.	.
16C/Jk	16e/Jk	16b-/Jk	.	.	.	.	.	.
8.C/L	8.e/L	8.b-\L	.	.	.	.	.	.
16C/Jk	16e/Jk	16b-\Jk	.	.	.	.	.	.
=41	=41	=41	=41	=41	=41	=41	=41	=41
4D\	8.f#/L	8.a/L	.	.	.	.	2.ryy	2.ryy
.	16d/Jk	16f#/Jk	.	.	.	.	.	.
4F#\	8.a/L	8.cc\L	.	.	.	.	.	.
.	16g/Jk	16bn\Jk	.	.	.	.	.	.
4D\	8.a/L	8.cc\L	.	.	.	.	.	.
.	16f#/Jk	16a\Jk	.	.	.	.	.	.
=42	=42	=42	=42	=42	=42	=42	=42	=42
4G\	8g/L	8b\L	.	.	.	.	2.ryy	2.ryy
.	8b/J	8gg\J	.	.	.	.	.	.
4d\	4b/	4dd\	.	.	.	.	.	.
4D/	4a/	4ff#m\	.	.	.	.	.	.
=43	=43	=43	=43	=43	=43	=43	=43	=43
2.GG/	2b/	4gg\	.	.	.	.	2.ryy	2.ryy
.	.	4g/	.	.	.	.	.	.
.	4r	4r	.	.	.	.	.	.
==	==	==	==	==	==	==	==	==
*-	*-	*-	*-	*-	*-	*-	*-	*-
!!!system-decoration: [(s1,s2)][(s3,s4)][(s5,s6,s7)]
!!!EED: Leszek Kubiak
!!!EEV: 2020-10-22
!!!ENC: Berenika Jozajtis
!!!END: 2020-05-22
